packages/dnb-eufemia/assets/icons/plant_medium.svg

<svg width="24" height="24" viewBox="0 0 24 24" fill="none" xmlns="http://www.w3.org/2000/svg">
<path d="M7.65302 5.98379C7.65302 5.98379 12.153 8.23379 12.903 15.7338C14.403 11.2338 16.653 9.73379 16.653 9.73379M10.653 8.98379C10.653 8.98379 9.12302 11.6038 6.90302 11.2338C2.40302 10.4838 3.15302 4.48379 1.65302 2.23379C3.10594 1.63983 4.67881 1.39815 6.24304 1.5285C7.80726 1.65885 9.31844 2.15754 10.653 2.98379C12.9 4.48379 12.9 6.73379 10.653 8.98379ZM15.575 11.1818C15.575 11.1818 16.638 12.9998 18.18 12.7448C21.305 12.2238 20.78 8.05679 21.826 6.49379C20.8168 6.0816 19.7244 5.91394 18.638 6.00449C17.5516 6.09503 16.5021 6.44122 15.575 7.01479C14.013 8.05679 14.013 9.61979 15.575 11.1818ZM16.038 23.2338H9.76801C9.59512 23.2338 9.42752 23.1741 9.29358 23.0648C9.15964 22.9555 9.06759 22.8032 9.03302 22.6338L7.83301 16.6338C7.81077 16.5248 7.81304 16.4122 7.83967 16.3043C7.86629 16.1963 7.91661 16.0955 7.98696 16.0094C8.05732 15.9232 8.14595 15.8538 8.24645 15.8062C8.34695 15.7585 8.45679 15.7338 8.56802 15.7338H17.238C17.3493 15.7336 17.4593 15.7582 17.5599 15.8058C17.6605 15.8534 17.7493 15.9228 17.8198 16.009C17.8902 16.0952 17.9406 16.1959 17.9673 16.304C17.994 16.4121 17.9963 16.5247 17.974 16.6338L16.774 22.6338C16.7392 22.8033 16.647 22.9556 16.5129 23.0649C16.3788 23.1742 16.211 23.2339 16.038 23.2338Z" stroke="black" stroke-width="1.5" stroke-linecap="round" stroke-linejoin="round"/>
</svg>

<svg width="24" height="24" viewBox="0 0 24 24" fill="none" xmlns="http://www.w3.org/2000/svg"><path d="M7.653 5.984s4.5 2.25 5.25 9.75c1.5-4.5 3.75-6 3.75-6m-6-.75s-1.53 2.62-3.75 2.25c-4.5-.75-3.75-6.75-5.25-9a9.947 9.947 0 0 1 9 .75c2.247 1.5 2.247 3.75 0 6Zm4.922 2.198S16.638 13 18.18 12.745c3.125-.521 2.6-4.688 3.646-6.251a6.913 6.913 0 0 0-6.251.52c-1.562 1.043-1.562 2.606 0 4.168Zm.463 12.052h-6.27a.75.75 0 0 1-.735-.6l-1.2-6a.75.75 0 0 1 .735-.9h8.67a.75.75 0 0 1 .736.9l-1.2 6a.75.75 0 0 1-.736.6Z" stroke="#000" stroke-width="1.5" stroke-linecap="round" stroke-linejoin="round"/></svg>
